X:0961
M:C
L:1/8
Q:1/4=100 "Slow"
K:D
d|AFAB A2Ad|BABc  B2AB|d2 de faef|   dcde f2{g}a
d|gfga b2ag|fefg  a2gf|ed`ef afef|   d2de f2  Ha

